material/.icons/material/numeric-9-plus-box-multiple.svg

<svg xmlns="http://www.w3.org/2000/svg" viewBox="0 0 24 24"><path d="M11 9V8h1v1h-1m10-8a2 2 0 012 2v14a2 2 0 01-2 2H7a2 2 0 01-2-2V3a2 2 0 012-2h14M3 5v16h16v2H3a2 2 0 01-2-2V5h2m12 4v2h2v2h2v-2h2V9h-2V7h-2v2h-2m-1 3V8a2 2 0 00-2-2h-1a2 2 0 00-2 2v1a2 2 0 002 2h1v1H9v2h3a2 2 0 002-2z"/></svg>

<?xml version="1.0" encoding="UTF-8"?><!DOCTYPE svg PUBLIC "-//W3C//DTD SVG 1.1//EN" "http://www.w3.org/Graphics/SVG/1.1/DTD/svg11.dtd"><svg xmlns="http://www.w3.org/2000/svg" xmlns:xlink="http://www.w3.org/1999/xlink" version="1.1" id="mdi-numeric-9-plus-box-multiple" width="24" height="24" viewBox="0 0 24 24"><path d="M11,9V8H12V9H11M21,1A2,2 0 0,1 23,3V17A2,2 0 0,1 21,19H7A2,2 0 0,1 5,17V3A2,2 0 0,1 7,1H21M3,5V21H19V23H3A2,2 0 0,1 1,21V5H3M15,9V11H17V13H19V11H21V9H19V7H17V9H15M14,12V8C14,6.89 13.1,6 12,6H11A2,2 0 0,0 9,8V9C9,10.11 9.9,11 11,11H12V12H9V14H12A2,2 0 0,0 14,12Z" /></svg>
